src/assets/bell-settings-icon-white.svg

<svg width="24" height="27" viewBox="0 0 24 27" fill="none" xmlns="http://www.w3.org/2000/svg">
<path d="M11.5839 0C6.6396 0 2.62574 4.34842 2.62574 9.70418V17.9158C2.62574 18.7397 2.1528 19.8818 1.57015 20.4644L0.167716 21.8668C-0.123605 22.1582 -0.025739 22.3944 0.386207 22.3944H22.7811C23.193 22.3944 23.2909 22.1582 22.9995 21.8668L21.5971 20.4644C21.0145 19.8818 20.5415 18.7397 20.5415 17.9158V9.70418C20.5415 4.34842 16.5277 0 11.5839 0ZM8.59782 24.0991C8.59782 25.6303 9.93562 26.8735 11.5839 26.8735C13.2316 26.8735 14.5694 25.6303 14.5694 24.0991C14.5694 23.9821 14.4675 23.8874 14.3419 23.8874H8.82541C8.69978 23.8874 8.59782 23.9821 8.59782 24.0991Z" fill="#FFF"/>
</svg>

<svg width="24" height="27" fill="none" xmlns="http://www.w3.org/2000/svg"><path d="M11.584 0C6.64 0 2.626 4.348 2.626 9.704v8.212c0 .824-.473 1.966-1.056 2.548L.168 21.867c-.292.291-.194.527.218.527h22.395c.412 0 .51-.236.219-.527l-1.403-1.403c-.582-.582-1.056-1.724-1.056-2.548V9.704C20.541 4.348 16.529 0 11.584 0zM8.598 24.1c0 1.53 1.338 2.773 2.986 2.773 1.648 0 2.985-1.243 2.985-2.774 0-.117-.102-.212-.227-.212H8.825c-.125 0-.227.095-.227.212z" fill="#FFF"/></svg>
